modules/cactus-icons/svgs/descriptive/connect.svg

<svg xmlns="http://www.w3.org/2000/svg" width="24" height="24" viewBox="0 0 24 24">
  <path d="M9.93476319,15.0854156 C9.01938181,16.2511533 7.59714217,17 6,17 C3.23857625,17 1,14.7614237 1,12 C1,9.23857625 3.23857625,7 6,7 C7.73349227,7 9.26094398,7.88216455 10.1579162,9.22205474 L13.1797628,7.3334006 C13.062595,6.90890182 13,6.46176084 13,6 C13,3.23857625 15.2385763,1 18,1 C20.7614237,1 23,3.23857625 23,6 C23,8.76142375 20.7614237,11 18,11 C16.4191219,11 15.0096023,10.266327 14.0933587,9.12089843 L10.9199889,11.1042546 C10.9725532,11.394873 11,11.6942312 11,12 C11,12.448593 10.940924,12.8833881 10.8301275,13.2970298 L14.0652368,14.9145844 C14.9806182,13.7488467 16.4028578,13 18,13 C20.7614237,13 23,15.2385763 23,18 C23,20.7614237 20.7614237,23 18,23 C15.2385763,23 13,20.7614237 13,18 C13,17.551407 13.059076,17.1166119 13.1698725,16.7029702 L9.93476319,15.0854156 Z M18,9 C19.6568542,9 21,7.65685425 21,6 C21,4.34314575 19.6568542,3 18,3 C16.3431458,3 15,4.34314575 15,6 C15,7.65685425 16.3431458,9 18,9 Z M18,21 C19.6568542,21 21,19.6568542 21,18 C21,16.3431458 19.6568542,15 18,15 C16.3431458,15 15,16.3431458 15,18 C15,19.6568542 16.3431458,21 18,21 Z M6,15 C7.65685425,15 9,13.6568542 9,12 C9,10.3431458 7.65685425,9 6,9 C4.34314575,9 3,10.3431458 3,12 C3,13.6568542 4.34314575,15 6,15 Z"/>
</svg>

<svg width="24" height="24" viewBox="0 0 24 24" xmlns="http://www.w3.org/2000/svg">
<path d="m 23,6 c 0,2.76142 -2.2386,5 -5,5 -1.5971,0 -3.0194,-0.7488 -3.9347,-1.91457 L 10.8301,10.703 C 10.9409,11.1166 11,11.5514 11,12 c 0,0.4486 -0.0591,0.8834 -0.1699,1.297 l 3.2351,1.6176 C 14.9806,13.7488 16.4029,13 18,13 c 2.7614,0 5,2.2386 5,5 0,2.7614 -2.2386,5 -5,5 -2.7614,0 -5,-2.2386 -5,-5 0,-0.4486 0.0591,-0.8834 0.1699,-1.297 L 9.93477,15.0854 C 9.01939,16.2511 7.59715,17 6,17 3.23858,17 1,14.7614 1,12 1,9.23858 3.23858,7 6,7 7.59715,7 9.0194,7.74885 9.93478,8.9146 L 13.1699,7.29705 C 13.0591,6.8834 13,6.4486 13,6 c 0,-2.76142 2.2386,-5 5,-5 2.7614,0 5,2.23858 5,5 z M 18,3 c -1.6569,0 -3,1.34315 -3,3 0,1.65685 1.3431,3 3,3 1.6569,0 3,-1.34315 3,-3 C 21,4.34315 19.6569,3 18,3 Z M 6,9 c -1.65685,0 -3,1.3431 -3,3 0,1.6569 1.34315,3 3,3 1.65685,0 3,-1.3431 3,-3 C 9,10.3431 7.65685,9 6,9 Z m 12,12 c 1.6569,0 3,-1.3431 3,-3 0,-1.6569 -1.3431,-3 -3,-3 -1.6569,0 -3,1.3431 -3,3 0,1.6569 1.3431,3 3,3 z"/>
</svg>
